X:145
T:Holy Land
Z: id:dc-reel-133
M:C
L:1/8
K:D Major
A|B3d A2Bc|dFF2 DFA=c|BGG2 ABdf|afeg fdd:|!
e|f2df dfaf|gfed cdeg|f2df dfaf|gfeg fdde|!
f2df dfaf|gfed cdef|dfaf g2ag|f2eg fdd|]!

